images/pyramid.svg

<svg xmlns="http://www.w3.org/2000/svg" viewBox="0 0 691.87 674.53"><defs><linearGradient id="linear-gradient" x1="1091.45" y1="6499.38" x2="1091.45" y2="6498.38" gradientTransform="matrix(658.63 0 0 -329.31 -718503.32 2140680.27)" gradientUnits="userSpaceOnUse"><stop offset="0" stop-color="#bfbebe"/><stop offset=".3" stop-color="#bfbebe" stop-opacity=".08"/><stop offset="1" stop-color="#bfbebe" stop-opacity="0"/></linearGradient><style>.cls-14{letter-spacing:.2em}</style></defs><g id="Layer_2" data-name="Layer 2"><g id="TEXT"><g id="Group_539" data-name="Group 539"><g id="Group_536" data-name="Group 536"><path id="Path_224" data-name="Path 224" d="M157.39 197.22L116 238.6h477.2l-41.39-41.38z" fill="#304b78"/><path id="Path_225" data-name="Path 225" d="M108.06 246.55l-41.39 41.39h575.87l-41.39-41.39z" fill="#2d325a"/><path id="Path_226" data-name="Path 226" d="M17.34 337.26h674.53l-41.39-41.38H58.72z" fill="#4d4d4d"/><path id="Path_227" data-name="Path 227" d="M395.87 41.27L354.6 0l-41.27 41.27z" fill="#ba5656"/><path id="Path_228" data-name="Path 228" d="M256.05 98.55l-41.38 41.38h279.87l-41.38-41.38z" fill="#56bca2"/><path id="Path_229" data-name="Path 229" d="M25.29 345.21L354.6 674.53l329.32-329.32z" style="isolation:isolate" opacity=".5" fill="url(#linear-gradient)"/><path id="Path_230" data-name="Path 230" d="M206.72 147.88l-41.38 41.39h378.53l-41.38-41.39z" fill="#2c94a2"/><path id="Path_231" data-name="Path 231" d="M305.38 49.22L264 90.6h181.21l-41.39-41.38z" fill="#dbb13b"/></g><g id="Group_538" data-name="Group 538"><g id="Group_537" data-name="Group 537" fill="none" stroke="#bfbebe" stroke-width="2"><path id="Line_132" data-name="Line 132" d="M91.13 237.48l70.71-70.71"/><path id="Path_187" data-name="Path 187" d="M166.08 171v-8.49h-8.48" stroke-miterlimit="10"/></g><text transform="rotate(-45 406.078 154.697)" style="isolation:isolate" font-size="16" fill="#989898" font-family="FiraSans-Regular,Fira Sans" letter-spacing=".19em" id="START_HERE" data-name="START HERE">S<tspan x="11.76" y="0" letter-spacing=".14em">T</tspan><tspan class="cls-14" x="22.27" y="0">A</tspan><tspan x="34.64" y="0">R</tspan><tspan class="cls-14" x="47.36" y="0">T HERE</tspan></text></g></g></g></g></svg>

<svg xmlns="http://www.w3.org/2000/svg" xmlns:xlink="http://www.w3.org/1999/xlink" viewBox="0 0 691.87 674.53"><defs><style>.cls-1{fill:#304b78;}.cls-2{fill:#2d325a;}.cls-3{fill:#4d4d4d;}.cls-4{fill:#ba5656;}.cls-5{fill:#56bca2;}.cls-6{opacity:0.5;fill:url(#linear-gradient);}.cls-11,.cls-12,.cls-6{isolation:isolate;}.cls-7{fill:#2c94a2;}.cls-8{fill:#dbb13b;}.cls-10,.cls-9{fill:none;stroke:#bfbebe;stroke-width:2px;}.cls-10{stroke-miterlimit:10;}.cls-12{font-size:16px;fill:#989898;font-family:FiraSans-Regular, Fira Sans;letter-spacing:0.19em;}.cls-13{letter-spacing:0.14em;}.cls-14{letter-spacing:0.2em;}.cls-15{letter-spacing:0.19em;}</style><linearGradient id="linear-gradient" x1="1091.45" y1="6499.38" x2="1091.45" y2="6498.38" gradientTransform="matrix(658.63, 0, 0, -329.31, -718503.32, 2140680.27)" gradientUnits="userSpaceOnUse"><stop offset="0" stop-color="#bfbebe"/><stop offset="0.3" stop-color="#bfbebe" stop-opacity="0.08"/><stop offset="1" stop-color="#bfbebe" stop-opacity="0"/></linearGradient></defs><g id="Layer_2" data-name="Layer 2"><g id="TEXT"><g id="Group_539" data-name="Group 539"><g id="Group_536" data-name="Group 536"><path id="Path_224" data-name="Path 224" class="cls-1" d="M157.39,197.22,116,238.6h477.2l-41.39-41.38Z"/><path id="Path_225" data-name="Path 225" class="cls-2" d="M108.06,246.55,66.67,287.94H642.54l-41.39-41.39Z"/><path id="Path_226" data-name="Path 226" class="cls-3" d="M17.34,337.26H691.87l-41.39-41.38H58.72Z"/><path id="Path_227" data-name="Path 227" class="cls-4" d="M395.87,41.27,354.6,0,313.33,41.27Z"/><path id="Path_228" data-name="Path 228" class="cls-5" d="M256.05,98.55l-41.38,41.38H494.54L453.16,98.55Z"/><path id="Path_229" data-name="Path 229" class="cls-6" d="M25.29,345.21,354.6,674.53,683.92,345.21Z"/><path id="Path_230" data-name="Path 230" class="cls-7" d="M206.72,147.88l-41.38,41.39H543.87l-41.38-41.39Z"/><path id="Path_231" data-name="Path 231" class="cls-8" d="M305.38,49.22,264,90.6H445.21L403.82,49.22Z"/></g><g id="Group_538" data-name="Group 538"><g id="Group_537" data-name="Group 537"><line id="Line_132" data-name="Line 132" class="cls-9" x1="91.13" y1="237.48" x2="161.84" y2="166.77"/><path id="Path_187" data-name="Path 187" class="cls-10" d="M166.08,171v-8.49H157.6"/></g><g id="START_HERE" data-name="START HERE" class="cls-11"><text class="cls-12" transform="translate(9.55 332.45) rotate(-45)">S<tspan class="cls-13" x="11.76" y="0">T</tspan><tspan class="cls-14" x="22.27" y="0">A</tspan><tspan class="cls-15" x="34.64" y="0">R</tspan><tspan class="cls-14" x="47.36" y="0">T HERE</tspan></text></g></g></g></g></g></svg>
